icons/evolvere-flat-vivid-sunken-dark-fallback/apps/64/system-file-manager.svg

<svg xmlns="http://www.w3.org/2000/svg" viewBox="0 0 64 64"><g color="#000"><path d="m0 4v30 28l2 2h30 30l2-2v-28-30h-32-32" fill="#3281e4"/><path d="m2 0l-2 1v3h32 32v-3l-2-1h-30-30" fill="#63b6ff"/></g><path d="m0 3v3l2-2" fill="#83c5ff"/><path d="m64 6l-2-2 2-1z" fill="#499af1"/><g fill-rule="evenodd" color="#000"><path d="m6 54l7 10h49l2-2v-40l-6-6z" fill="#002e67" fill-opacity=".23"/><path fill="#2f5471" d="m6 16h52v32h-52z"/></g><g transform="translate(0-6.965)"><path d="m10 18.965v24h44v-26h-15l-3 2z" fill="#e38d16"/><path d="m51 30.965v15l3-3v-26l-1 1v15z" fill="#3e4959" fill-opacity=".432"/><path d="m15.609 19.965h33.391v14l-5.836 6.07h-27.555z" fill="#e2e2e2" color="#000"/><path d="m10 20.965v20h44v-18h-15l-3-2z" fill="#fca834"/></g><g color="#000"><g fill-rule="evenodd"><path d="m6 22h52v32l-1 1h-50l-1-1z" fill="#aebccb"/><path d="m6 16v4 2h3 49v-2-4h-3v4h-46v-4z" fill="#e7eaeb"/><path fill="#fff" fill-opacity=".448" d="m6 21h51v1h-51z"/><rect width="18" height="6" x="24" y="26" rx="3" fill-opacity=".23" fill="#002e67"/></g><path d="m12 22h46v-2-4h-3v4h-45z" fill-opacity=".165" fill="#00234e"/></g></svg>

<?xml version="1.0" encoding="UTF-8" standalone="no"?>
<!-- Created with Inkscape (http://www.inkscape.org/) -->

<svg
   xmlns:dc="http://purl.org/dc/elements/1.1/"
   xmlns:cc="http://creativecommons.org/ns#"
   xmlns:rdf="http://www.w3.org/1999/02/22-rdf-syntax-ns#"
   xmlns:svg="http://www.w3.org/2000/svg"
   xmlns="http://www.w3.org/2000/svg"
   xmlns:sodipodi="http://sodipodi.sourceforge.net/DTD/sodipodi-0.dtd"
   xmlns:inkscape="http://www.inkscape.org/namespaces/inkscape"
   width="64"
   height="64"
   id="svg13094"
   version="1.1"
   inkscape:version="0.91+devel r"
   sodipodi:docname="system-file-manager.svg">
  <sodipodi:namedview
     id="base"
     pagecolor="#ffffff"
     bordercolor="#666666"
     borderopacity="1.0"
     inkscape:pageopacity="0"
     inkscape:pageshadow="2"
     inkscape:zoom="8.0000004"
     inkscape:cx="38.341928"
     inkscape:cy="30.320158"
     inkscape:document-units="px"
     inkscape:current-layer="svg13094"
     showgrid="true"
     inkscape:snap-bbox="true"
     inkscape:bbox-paths="true"
     inkscape:bbox-nodes="true"
     inkscape:snap-bbox-edge-midpoints="true"
     inkscape:snap-bbox-midpoints="true"
     inkscape:object-paths="true"
     inkscape:snap-intersection-paths="true"
     inkscape:object-nodes="true"
     inkscape:snap-smooth-nodes="true"
     inkscape:snap-midpoints="true"
     inkscape:snap-object-midpoints="true"
     inkscape:snap-center="true"
     showguides="true"
     inkscape:guide-bbox="true"
     inkscape:window-width="1920"
     inkscape:window-height="1023"
     inkscape:window-x="-10"
     inkscape:window-y="35"
     inkscape:window-maximized="1"
     inkscape:snap-global="true"
     fit-margin-top="0"
     fit-margin-left="0"
     fit-margin-right="0"
     fit-margin-bottom="0"
     showborder="true"
     inkscape:showpageshadow="false"
     inkscape:snap-page="true">
    <inkscape:grid
       type="xygrid"
       id="grid3075"
       empspacing="5"
       visible="true"
       enabled="true"
       snapvisiblegridlinesonly="true"
       originx="1.6362304e-08px"
       originy="18px" />
  </sodipodi:namedview>
  <defs
     id="defs13096" />
  <metadata
     id="metadata13099">
    <rdf:RDF>
      <cc:Work
         rdf:about="">
        <dc:format>image/svg+xml</dc:format>
        <dc:type
           rdf:resource="http://purl.org/dc/dcmitype/StillImage" />
        <dc:title></dc:title>
      </cc:Work>
    </rdf:RDF>
  </metadata>
  <path
     style="color:#000000;fill:#3281e4;fill-opacity:1;fill-rule:nonzero;stroke:none;stroke-width:2.28571415;marker:none;visibility:visible;display:inline;overflow:visible;enable-background:accumulate"
     d="M 0 4 L 0 34 L 0 62 L 2 64 L 32 64 L 62 64 L 64 62 L 64 34 L 64 4 L 32 4 L 0 4 z "
     id="path6498" />
  <path
     style="color:#000000;fill:#63b6ff;fill-opacity:1;fill-rule:nonzero;stroke:none;marker:none;visibility:visible;display:inline;overflow:visible;enable-background:accumulate;stroke-width:2.28571415"
     d="M 2 0 L 0 1 L 0 4 L 32 4 L 64 4 L 64 1 L 62 0 L 32 0 L 2 0 z "
     id="path6502" />
  <path
     style="fill:#83c5ff;fill-opacity:1;fill-rule:nonzero"
     d="M 0,3 0,6 2,4 Z"
     id="path4298"
     inkscape:connector-curvature="0"
     sodipodi:nodetypes="cccc" />
  <path
     d="M 64,6 62,4 64,3 z"
     id="path3028"
     style="fill:#499af1;fill-opacity:1"
     inkscape:connector-curvature="0" />
  <path
     style="color:#000000;fill:#002e67;fill-opacity:0.22987477;fill-rule:evenodd;stroke:none;stroke-width:0.9999997;marker:none;visibility:visible;display:inline;overflow:visible;enable-background:accumulate"
     d="m 6,54 7,10 49,0 2,-2 0,-40 -6,-6 z"
     id="rect4084"
     inkscape:connector-curvature="0"
     sodipodi:nodetypes="ccccccc" />
  <g
     id="g3043"
     inkscape:export-filename="folder.png"
     inkscape:export-xdpi="90"
     inkscape:export-ydpi="90"
     transform="translate(-0.62500009,0.082283)" />
  <g
     id="scalable"
     transform="matrix(1.0385892,0,0,1.0385892,1214.7222,1878.8121)"
     inkscape:label="#g3701"
     style="fill:#ffffff" />
  <rect
     y="16"
     x="6"
     height="32"
     width="52"
     id="rect3816"
     style="color:#000000;fill:#2f5471;fill-opacity:1;fill-rule:evenodd;stroke:none;stroke-width:0.9999997;marker:none;visibility:visible;display:inline;overflow:visible;enable-background:accumulate" />
  <g
     id="g3043-7"
     inkscape:export-filename="folder.png"
     inkscape:export-xdpi="90"
     inkscape:export-ydpi="90"
     transform="translate(-74.125,28.582283)" />
  <g
     id="g4086"
     transform="translate(1.6362304e-8,-6.964846)">
    <path
       style="fill:#e38d16;fill-opacity:1;fill-rule:nonzero;stroke:none"
       d="m 10,18.964846 0,24 44,0 0,-26 -15,0 -3,2 z"
       id="rect3241-7"
       inkscape:connector-curvature="0"
       sodipodi:nodetypes="ccccccc" />
    <path
       sodipodi:nodetypes="ccccccc"
       id="path3802"
       d="m 51,30.964847 0,14.999999 3,-3 0,-26 -1,1 0,15.000001 z"
       inkscape:connector-curvature="0"
       style="fill:#3e4959;fill-opacity:0.43171806" />
    <path
       sodipodi:nodetypes="cccccc"
       style="color:#000000;display:inline;overflow:visible;visibility:visible;fill:#e2e2e2;fill-opacity:1;fill-rule:nonzero;stroke-width:1;stroke-linecap:butt;stroke-linejoin:miter;stroke-miterlimit:4;stroke-dasharray:none;stroke-dashoffset:0;stroke-opacity:1;marker:none;enable-background:accumulate"
       inkscape:connector-curvature="0"
       id="path3982"
       d="m 15.609379,19.964846 33.39062,0 0,13.999999 -5.835936,6.070307 -27.554684,0 z" />
    <path
       id="path3014-2"
       d="m 10,20.964846 0,19.999999 44,0 0,-17.999999 -15,0 -3,-2 z"
       inkscape:connector-curvature="0"
       style="fill:#fca834;fill-opacity:1;fill-rule:nonzero"
       sodipodi:nodetypes="ccccccc" />
  </g>
  <path
     style="color:#000000;fill:#aebccb;fill-opacity:1;fill-rule:evenodd;stroke:none;stroke-width:0.9999997;marker:none;visibility:visible;display:inline;overflow:visible;enable-background:accumulate"
     d="m 6,22 52,0 0,32 -1,1 -50,0 -1,-1 z"
     id="rect4080"
     inkscape:connector-curvature="0"
     sodipodi:nodetypes="ccccccc" />
  <path
     id="path4569"
     d="m 6,16 0,4 0,2 3,0 49,0 0,-2 0,-4 -3,0 0,4 -46,0 0,-4 z"
     style="color:#000000;fill:#e7eaeb;fill-opacity:1;fill-rule:evenodd;stroke:none;stroke-width:0.9999997;marker:none;visibility:visible;display:inline;overflow:visible;enable-background:accumulate"
     inkscape:connector-curvature="0"
     sodipodi:nodetypes="cccccccccccc" />
  <rect
     style="color:#000000;fill:#ffffff;fill-opacity:0.44787987;fill-rule:evenodd;stroke:none;stroke-width:0.9999997;marker:none;visibility:visible;display:inline;overflow:visible;enable-background:accumulate"
     id="rect4368"
     width="51"
     height="1"
     x="6"
     y="21" />
  <rect
     style="color:#000000;fill:#002e67;fill-opacity:0.22987479;fill-rule:evenodd;stroke:none;stroke-width:0.9999997;marker:none;visibility:visible;display:inline;overflow:visible;enable-background:accumulate;opacity:1;stroke-linecap:butt;stroke-linejoin:miter;stroke-miterlimit:4;stroke-dasharray:none;stroke-dashoffset:0;stroke-opacity:1"
     id="rect4533"
     width="18"
     height="6"
     x="24"
     y="26"
     rx="3"
     ry="3" />
  <path
     style="color:#000000;fill:#00234e;fill-opacity:0.16547406;fill-rule:nonzero;stroke:none;stroke-width:0.9999997;marker:none;visibility:visible;display:inline;overflow:visible;enable-background:accumulate;opacity:1;stroke-linecap:butt;stroke-linejoin:miter;stroke-miterlimit:4;stroke-dasharray:none;stroke-dashoffset:0;stroke-opacity:1"
     d="m 12,22 46,0 0,-2 0,-4 -3,0 0,4 -45,0 z"
     id="rect4142"
     inkscape:connector-curvature="0"
     sodipodi:nodetypes="cccccccc" />
</svg>
